; generated by Slic3r 1.2.9 on 2019-08-22 at 10:46:04

; external perimeters extrusion width = 0.50mm
; perimeters extrusion width = 0.85mm
; infill extrusion width = 1.02mm
; solid infill extrusion width = 0.85mm
; top infill extrusion width = 0.85mm

M107
M190 S60 ; set bed temperature
M104 S215 ; set temperature
G28 ; home all axes
G1 Z5 F5000 ; lift nozzle

M109 S215 ; wait for temperature to be reached
G21 ; set units to millimeters
G90 ; use absolute coordinates
M82 ; use absolute distances for extrusion
G92 E0
G1 Z0.100 F7800.000
G1 E-2.00000 F2400.00000
G92 E0
G1 X107.120 Y107.478 F7800.000
G1 E2.00000 F2400.00000
G1 X107.979 Y106.646 E2.00089 F1800.000
G1 X108.523 Y106.156 E2.00143
G1 X109.300 Y105.503 E2.00218
G1 X109.881 Y105.050 E2.00273
G1 X110.700 Y104.455 E2.00348
G1 X111.306 Y104.046 E2.00403
G1 X112.166 Y103.508 E2.00478
G1 X112.804 Y103.140 E2.00533
G1 X113.698 Y102.665 E2.00608
G1 X114.354 Y102.345 E2.00662
G1 X115.283 Y101.931 E2.00737
G1 X115.965 Y101.655 E2.00792
G1 X116.916 Y101.309 E2.00867
G1 X117.615 Y101.082 E2.00922
G1 X118.588 Y100.803 E2.00997
G1 X119.302 Y100.625 E2.01051
G1 X120.292 Y100.415 E2.01126
G1 X121.014 Y100.287 E2.01181
G1 X122.018 Y100.146 E2.01256
G1 X122.747 Y100.070 E2.01311
G1 X123.759 Y99.999 E2.01386
G1 X124.494 Y99.973 E2.01440
G1 X125.506 Y99.973 E2.01516
G1 X126.238 Y99.999 E2.01570
G1 X127.251 Y100.069 E2.01645 F1800.000
G1 X127.982 Y100.146 E2.01700
G1 X128.985 Y100.287 E2.01775
G1 X129.708 Y100.415 E2.01830
G1 X130.698 Y100.625 E2.01905
G1 X131.412 Y100.803 E2.01959
G1 X132.385 Y101.082 E2.02034
G1 X133.083 Y101.309 E2.02089
G1 X134.035 Y101.655 E2.02164
G1 X134.717 Y101.931 E2.02219
G1 X135.642 Y102.343 E2.02294
G1 X136.301 Y102.664 E2.02348
G1 X137.196 Y103.140 E2.02424
G1 X137.834 Y103.508 E2.02478
G1 X138.692 Y104.045 E2.02553
G1 X139.300 Y104.455 E2.02608
G1 X140.119 Y105.050 E2.02683
G1 X140.699 Y105.503 E2.02738
G1 X141.475 Y106.154 E2.02813
G1 X142.021 Y106.646 E2.02867
G1 X142.880 Y107.478 E2.02956
G1 X143.936 Y108.629 E2.03072
G1 X144.410 Y109.193 E2.03127
G1 X145.033 Y109.991 E2.03202
G1 X145.465 Y110.585 E2.03256
G1 X146.031 Y111.424 E2.03332
G1 X146.421 Y112.049 E2.03386
G1 X146.931 Y112.931 E2.03462
G1 X147.272 Y113.574 E2.03516
G1 X147.713 Y114.478 E2.03590
G1 X148.015 Y115.156 E2.03646
G1 X148.394 Y116.094 E2.03721
G1 X148.645 Y116.785 E2.03775
G1 X148.959 Y117.749 E2.03851
G1 X149.161 Y118.455 E2.03905
G1 X149.406 Y119.437 E2.03980
G1 X149.559 Y120.155 E2.04035
G1 X149.735 Y121.158 E2.04110
G1 X149.837 Y121.881 E2.04164
G1 X149.942 Y122.881 E2.04239
G1 X149.994 Y123.621 E2.04294
G1 X150.029 Y124.633 E2.04369
G1 X150.029 Y125.367 E2.04424
G1 X149.994 Y126.379 E2.04499
G1 X149.943 Y127.113 E2.04554
G1 X149.837 Y128.119 E2.04629
G1 X149.734 Y128.848 E2.04683
G1 X149.559 Y129.845 E2.04758
G1 X149.406 Y130.563 E2.04813
G1 X149.161 Y131.545 E2.04888
G1 X148.958 Y132.253 E2.04943
G1 X148.645 Y133.215 E2.05018
G1 X148.394 Y133.906 E2.05072
G1 X148.014 Y134.846 E2.05148
G1 X147.716 Y135.516 E2.05202
G1 X147.272 Y136.426 E2.05277
G1 X146.927 Y137.075 E2.05332
G1 X146.421 Y137.951 E2.05407
G1 X146.031 Y138.576 E2.05462
G1 X145.465 Y139.415 E2.05537
G1 X145.033 Y140.009 E2.05591
G1 X144.408 Y140.809 E2.05667
G1 X143.937 Y141.370 E2.05721
G1 X142.880 Y142.522 E2.05837
G1 X142.021 Y143.354 E2.05926
G1 X141.476 Y143.845 E2.05980
G1 X140.699 Y144.497 E2.06055
G1 X140.119 Y144.950 E2.06110
G1 X139.300 Y145.545 E2.06185
G1 X138.692 Y145.955 E2.06240
G1 X137.834 Y146.492 E2.06315
G1 X137.196 Y146.860 E2.06370
G1 X136.302 Y147.335 E2.06445
G1 X135.642 Y147.657 E2.06499
G1 X134.717 Y148.069 E2.06574
G1 X134.038 Y148.344 E2.06629
G1 X133.084 Y148.691 E2.06704
G1 X132.393 Y148.915 E2.06758
G1 X131.412 Y149.197 E2.06834
G1 X130.700 Y149.374 E2.06888
G1 X129.708 Y149.585 E2.06963
G1 X128.977 Y149.714 E2.07019
G1 X127.982 Y149.854 E2.07093
G1 X127.254 Y149.930 E2.07147
G1 X126.241 Y150.001 E2.07223
G1 X125.506 Y150.027 E2.07277
G1 X124.494 Y150.027 E2.07353
G1 X123.759 Y150.001 E2.07407
G1 X122.753 Y149.931 E2.07482
G1 X122.018 Y149.854 E2.07537
G1 X121.010 Y149.712 E2.07612
G1 X120.293 Y149.585 E2.07667
G1 X119.302 Y149.375 E2.07742
G1 X118.588 Y149.197 E2.07796
G1 X117.615 Y148.918 E2.07871
G1 X116.916 Y148.691 E2.07926
G1 X115.965 Y148.345 E2.08001
G1 X115.283 Y148.069 E2.08056
G1 X114.358 Y147.657 E2.08131
G1 X113.698 Y147.335 E2.08185
G1 X112.804 Y146.860 E2.08261
G1 X112.165 Y146.491 E2.08315
G1 X111.308 Y145.955 E2.08390
G1 X110.701 Y145.546 E2.08445
G1 X109.881 Y144.950 E2.08520
G1 X109.302 Y144.498 E2.08574
G1 X108.525 Y143.846 E2.08650
G1 X107.978 Y143.354 E2.08704
G1 X107.120 Y142.522 E2.08793
G1 X106.067 Y141.375 E2.08909
G1 X105.590 Y140.807 E2.08964
G1 X104.966 Y140.008 E2.09039
G1 X104.535 Y139.415 E2.09093
G1 X103.967 Y138.572 E2.09169
G1 X103.579 Y137.951 E2.09223
G1 X103.076 Y137.080 E2.09298
G1 X102.728 Y136.426 E2.09353
G1 X102.282 Y135.511 E2.09428
G1 X101.985 Y134.844 E2.09483
G1 X101.606 Y133.905 E2.09558
G1 X101.355 Y133.215 E2.09612
G1 X101.042 Y132.253 E2.09687
G1 X100.839 Y131.545 E2.09742
G1 X100.596 Y130.569 E2.09817
G1 X100.442 Y129.846 E2.09872
G1 X100.266 Y128.848 E2.09947
G1 X100.165 Y128.133 E2.10000
G1 X100.057 Y127.113 E2.10077
G1 X100.006 Y126.383 E2.10131
G1 X99.970 Y125.359 E2.10207
G1 X99.970 Y124.642 E2.10260
G1 X100.006 Y123.617 E2.10336
G1 X100.057 Y122.887 E2.10391
G1 X100.166 Y121.858 E2.10467
G1 X100.266 Y121.152 E2.10520
G1 X100.442 Y120.154 E2.10595
G1 X100.594 Y119.437 E2.10650
G1 X100.839 Y118.453 E2.10725
G1 X101.042 Y117.747 E2.10780
G1 X101.357 Y116.778 E2.10855
G1 X101.606 Y116.094 E2.10909
G1 X101.986 Y115.155 E2.10985
G1 X102.284 Y114.484 E2.11039
G1 X102.729 Y113.571 E2.11114
G1 X103.073 Y112.925 E2.11169
G1 X103.578 Y112.050 E2.11244
G1 X103.969 Y111.424 E2.11299
G1 X104.535 Y110.585 E2.11374
G1 X104.967 Y109.991 E2.11428
G1 X105.590 Y109.193 E2.11503
G1 X106.063 Y108.630 E2.11558
G1 X107.068 Y107.532 E2.11668
G1 X107.246 Y107.604 F7800.000
G1 X108.103 Y106.775 E2.11757 F1800.000
G1 X108.638 Y106.292 E2.11810
G1 X109.415 Y105.640 E2.11886
G1 X109.986 Y105.194 E2.11939
G1 X110.805 Y104.599 E2.12015
G1 X111.401 Y104.197 E2.12068
G1 X112.261 Y103.660 E2.12143
G1 X112.888 Y103.298 E2.12197
G1 X113.782 Y102.823 E2.12272
G1 X114.427 Y102.508 E2.12325
G1 X115.355 Y102.094 E2.12401
G1 X116.026 Y101.823 E2.12455
G1 X116.977 Y101.477 E2.12530
G1 X117.664 Y101.254 E2.12583
G1 X118.637 Y100.975 E2.12658
G1 X119.339 Y100.800 E2.12712
G1 X120.329 Y100.590 E2.12787
G1 X121.039 Y100.464 E2.12841
G1 X122.042 Y100.323 E2.12916
G1 X122.760 Y100.248 E2.12970
G1 X123.771 Y100.177 E2.13045
G1 X124.494 Y100.152 E2.13098
G1 X125.506 Y100.152 E2.13174
G1 X126.226 Y100.177 E2.13227
G1 X127.238 Y100.248 E2.13302 F1800.000
G1 X127.958 Y100.323 E2.13356
G1 X128.960 Y100.464 E2.13431
G1 X129.671 Y100.590 E2.13485
G1 X130.661 Y100.800 E2.13560
G1 X131.363 Y100.975 E2.13614
G1 X132.336 Y101.254 E2.13689
G1 X133.022 Y101.477 E2.13742
G1 X133.974 Y101.823 E2.13817
G1 X134.645 Y102.094 E2.13871
G1 X135.569 Y102.506 E2.13946
G1 X136.217 Y102.822 E2.14000
G1 X137.112 Y103.298 E2.14075
G1 X137.739 Y103.660 E2.14129
G1 X138.597 Y104.196 E2.14204
G1 X139.195 Y104.600 E2.14257
G1 X140.014 Y105.194 E2.14333
G1 X140.584 Y105.640 E2.14386
G1 X141.360 Y106.291 E2.14461
G1 X141.897 Y106.774 E2.14515
G1 X142.754 Y107.604 E2.14604
G1 X143.803 Y108.748 E2.14719
G1 X144.269 Y109.303 E2.14773
G1 X144.892 Y110.101 E2.14848
G1 X145.317 Y110.685 E2.14901
G1 X145.883 Y111.524 E2.14977
G1 X146.266 Y112.138 E2.15030
G1 X146.776 Y113.021 E2.15106
G1 X147.111 Y113.652 E2.15159
G1 X147.556 Y114.563 E2.15234
G1 X147.849 Y115.223 E2.15288
G1 X148.229 Y116.161 E2.15363
G1 X148.476 Y116.840 E2.15417
G1 X148.789 Y117.804 E2.15492
G1 X148.988 Y118.498 E2.15545
G1 X149.233 Y119.480 E2.15621
G1 X149.383 Y120.186 E2.15674
G1 X149.560 Y121.189 E2.15750
G1 X149.659 Y121.899 E2.15803
G1 X149.764 Y122.899 E2.15878
G1 X149.815 Y123.627 E2.15932
G1 X149.851 Y124.639 E2.16007
G1 X149.851 Y125.361 E2.16061
G1 X149.815 Y126.373 E2.16136
G1 X149.765 Y127.094 E2.16189
G1 X149.659 Y128.101 E2.16264
G1 X149.559 Y128.817 E2.16318
G1 X149.383 Y129.814 E2.16393
G1 X149.233 Y130.520 E2.16447
G1 X148.988 Y131.502 E2.16522
G1 X148.788 Y132.198 E2.16576
G1 X148.476 Y133.160 E2.16651
G1 X148.229 Y133.839 E2.16704
G1 X147.849 Y134.779 E2.16780
G1 X147.555 Y135.438 E2.16833
G1 X147.112 Y136.348 E2.16908
G1 X146.772 Y136.986 E2.16962
G1 X146.266 Y137.862 E2.17037
G1 X145.883 Y138.476 E2.17091
G1 X145.317 Y139.315 E2.17166
G1 X144.892 Y139.899 E2.17220
G1 X144.268 Y140.699 E2.17295
G1 X143.804 Y141.251 E2.17348
G1 X142.754 Y142.396 E2.17464
G1 X141.897 Y143.225 E2.17552
G1 X141.361 Y143.709 E2.17606
G1 X140.585 Y144.360 E2.17681
G1 X140.014 Y144.806 E2.17735
G1 X139.196 Y145.400 E2.17810
G1 X138.597 Y145.804 E2.17863
G1 X137.739 Y146.340 E2.17939
G1 X137.112 Y146.702 E2.17992
G1 X136.218 Y147.177 E2.18067
G1 X135.570 Y147.494 E2.18121
G1 X134.645 Y147.906 E2.18196
G1 X133.976 Y148.176 E2.18250
G1 X133.023 Y148.523 E2.18325
G1 X132.344 Y148.744 E2.18378
G1 X131.363 Y149.025 E2.18454
G1 X130.662 Y149.200 E2.18507
G1 X129.671 Y149.411 E2.18583
G1 X128.961 Y149.536 E2.18636
G1 X127.958 Y149.677 E2.18711
G1 X127.241 Y149.752 E2.18765
G1 X126.229 Y149.823 E2.18840
G1 X125.506 Y149.848 E2.18894
G1 X124.494 Y149.848 E2.18969
G1 X123.771 Y149.823 E2.19023
G1 X122.765 Y149.753 E2.19098
G1 X122.042 Y149.677 E2.19151
G1 X121.035 Y149.535 E2.19227
G1 X120.330 Y149.411 E2.19280
G1 X119.339 Y149.200 E2.19355
G1 X118.637 Y149.025 E2.19409
G1 X117.664 Y148.746 E2.19484
G1 X116.977 Y148.523 E2.19538
G1 X116.026 Y148.177 E2.19613
G1 X115.355 Y147.906 E2.19667
G1 X114.431 Y147.494 E2.19742
G1 X113.782 Y147.178 E2.19795
G1 X112.888 Y146.702 E2.19870
G1 X112.260 Y146.339 E2.19924
G1 X111.403 Y145.804 E2.19999
G1 X110.806 Y145.401 E2.20053
G1 X109.986 Y144.806 E2.20128
G1 X109.417 Y144.361 E2.20182
G1 X108.640 Y143.709 E2.20257
G1 X108.103 Y143.225 E2.20311
G1 X107.246 Y142.396 E2.20399
G1 X106.200 Y141.255 E2.20514
G1 X105.731 Y140.697 E2.20568
G1 X105.107 Y139.898 E2.20643
G1 X104.683 Y139.315 E2.20697
G1 X104.115 Y138.472 E2.20772
G1 X103.734 Y137.862 E2.20826
G1 X103.231 Y136.991 E2.20900
G1 X102.888 Y136.348 E2.20954
G1 X102.442 Y135.433 E2.21030
G1 X102.151 Y134.777 E2.21083
G1 X101.771 Y133.838 E2.21158
G1 X101.524 Y133.160 E2.21212
G1 X101.212 Y132.198 E2.21287
G1 X101.012 Y131.502 E2.21341
G1 X100.769 Y130.526 E2.21415
G1 X100.617 Y129.815 E2.21469
G1 X100.441 Y128.817 E2.21545
G1 X100.342 Y128.114 E2.21597
G1 X100.235 Y127.094 E2.21673
G1 X100.185 Y126.377 E2.21727
G1 X100.149 Y125.353 E2.21803
G1 X100.149 Y124.648 E2.21855
G1 X100.185 Y123.623 E2.21931
G1 X100.235 Y122.906 E2.21985
G1 X100.343 Y121.877 E2.22061
G1 X100.441 Y121.183 E2.22114
G1 X100.617 Y120.185 E2.22189
G1 X100.767 Y119.480 E2.22242
G1 X101.013 Y118.496 E2.22318
G1 X101.212 Y117.802 E2.22371
G1 X101.526 Y116.834 E2.22447
G1 X101.771 Y116.161 E2.22500
G1 X102.150 Y115.224 E2.22575
G1 X102.445 Y114.562 E2.22629
G1 X102.890 Y113.649 E2.22704
G1 X103.228 Y113.014 E2.22757
G1 X103.733 Y112.139 E2.22832
G1 X104.117 Y111.524 E2.22886
G1 X104.683 Y110.685 E2.22961
G1 X105.108 Y110.101 E2.23015
G1 X105.731 Y109.303 E2.23090
G1 X106.196 Y108.749 E2.23144
G1 X107.194 Y107.658 E2.23254
G1 X107.372 Y107.730 F7800.000
G1 X108.227 Y106.903 E2.23342 F1800.000
G1 X108.753 Y106.429 E2.23394
G1 X109.530 Y105.777 E2.23470
G1 X110.091 Y105.339 E2.23523
G1 X110.910 Y104.744 E2.23598
G1 X111.495 Y104.349 E2.23650
G1 X112.356 Y103.811 E2.23725
G1 X112.972 Y103.455 E2.23778
G1 X113.865 Y102.980 E2.23853
G1 X114.500 Y102.671 E2.23906
G1 X115.428 Y102.257 E2.23981
G1 X116.087 Y101.991 E2.24034
G1 X117.038 Y101.645 E2.24109
G1 X117.713 Y101.426 E2.24162
G1 X118.686 Y101.147 E2.24237
G1 X119.376 Y100.975 E2.24290
G1 X120.366 Y100.764 E2.24365
G1 X121.064 Y100.641 E2.24417
G1 X122.067 Y100.500 E2.24493
G1 X122.772 Y100.426 E2.24545
G1 X123.784 Y100.355 E2.24620
G1 X124.494 Y100.330 E2.24673
G1 X125.506 Y100.330 E2.24748
G1 X126.213 Y100.355 E2.24801
G1 X127.226 Y100.426 E2.24876 F1800.000
G1 X127.933 Y100.500 E2.24929
G1 X128.935 Y100.641 E2.25004
G1 X129.634 Y100.764 E2.25057
G1 X130.624 Y100.975 E2.25132
G1 X131.314 Y101.147 E2.25185
G1 X132.287 Y101.426 E2.25260
G1 X132.961 Y101.645 E2.25312
G1 X133.913 Y101.991 E2.25388
G1 X134.572 Y102.257 E2.25440
G1 X135.497 Y102.669 E2.25516
G1 X136.133 Y102.979 E2.25568
G1 X137.028 Y103.455 E2.25643
G1 X137.644 Y103.811 E2.25696
G1 X138.503 Y104.347 E2.25771
G1 X139.091 Y104.744 E2.25824
G1 X139.909 Y105.339 E2.25899
G1 X140.470 Y105.777 E2.25952
G1 X141.245 Y106.427 E2.26027
G1 X141.773 Y106.903 E2.26080
G1 X142.628 Y107.730 E2.26168
G1 X143.671 Y108.868 E2.26283
G1 X144.128 Y109.413 E2.26335
G1 X144.752 Y110.211 E2.26411
G1 X145.169 Y110.785 E2.26463
G1 X145.735 Y111.624 E2.26538
G1 X146.112 Y112.227 E2.26591
G1 X146.621 Y113.110 E2.26667
G1 X146.951 Y113.730 E2.26719
G1 X147.392 Y114.634 E2.26794
G1 X147.684 Y115.290 E2.26847
G1 X148.063 Y116.228 E2.26922
G1 X148.306 Y116.895 E2.26975
G1 X148.619 Y117.859 E2.27050
G1 X148.815 Y118.541 E2.27103
G1 X149.059 Y119.523 E2.27178
G1 X149.207 Y120.217 E2.27230
G1 X149.384 Y121.220 E2.27306
G1 X149.482 Y121.918 E2.27358
G1 X149.588 Y122.925 E2.27433
G1 X149.637 Y123.634 E2.27486
G1 X149.672 Y124.645 E2.27561
G1 X149.672 Y125.355 E2.27614
G1 X149.637 Y126.366 E2.27689
G1 X149.587 Y127.076 E2.27742
G1 X149.482 Y128.082 E2.27817
G1 X149.383 Y128.786 E2.27870
G1 X149.207 Y129.783 E2.27945
G1 X149.059 Y130.477 E2.27998
G1 X148.815 Y131.459 E2.28073
G1 X148.619 Y132.142 E2.28125
G1 X148.306 Y133.105 E2.28201
G1 X148.063 Y133.772 E2.28253
G1 X147.683 Y134.712 E2.28329
G1 X147.395 Y135.360 E2.28381
G1 X146.951 Y136.269 E2.28456
G1 X146.618 Y136.896 E2.28509
G1 X146.112 Y137.773 E2.28584
G1 X145.735 Y138.376 E2.28637
G1 X145.169 Y139.215 E2.28712
G1 X144.752 Y139.789 E2.28765
G1 X144.127 Y140.589 E2.28840
G1 X143.672 Y141.131 E2.28893
G1 X142.628 Y142.270 E2.29007
G1 X141.773 Y143.097 E2.29096
G1 X141.246 Y143.572 E2.29148
G1 X140.470 Y144.223 E2.29223
G1 X139.909 Y144.661 E2.29276
G1 X139.091 Y145.256 E2.29351
G1 X138.503 Y145.653 E2.29404
G1 X137.644 Y146.189 E2.29479
G1 X137.028 Y146.545 E2.29532
G1 X136.135 Y147.020 E2.29607
G1 X135.497 Y147.331 E2.29660
G1 X134.572 Y147.743 E2.29735
G1 X133.915 Y148.008 E2.29787
G1 X132.962 Y148.355 E2.29863
G1 X132.295 Y148.572 E2.29915
G1 X131.314 Y148.853 E2.29991
G1 X130.625 Y149.025 E2.30043
G1 X129.634 Y149.236 E2.30119
G1 X128.936 Y149.359 E2.30171
G1 X127.933 Y149.500 E2.30246
G1 X127.229 Y149.574 E2.30299
G1 X126.216 Y149.645 E2.30374
G1 X125.506 Y149.670 E2.30427
G1 X124.494 Y149.670 E2.30502
G1 X123.784 Y149.645 E2.30555
G1 X122.778 Y149.575 E2.30630
G1 X122.067 Y149.500 E2.30683
G1 X121.060 Y149.358 E2.30758
G1 X120.367 Y149.236 E2.30810
G1 X119.376 Y149.026 E2.30886
G1 X118.686 Y148.853 E2.30938
G1 X117.713 Y148.574 E2.31014
G1 X117.038 Y148.355 E2.31066
G1 X116.087 Y148.009 E2.31141
G1 X115.428 Y147.743 E2.31194
G1 X114.503 Y147.331 E2.31269
G1 X113.866 Y147.020 E2.31322
G1 X112.972 Y146.545 E2.31397
G1 X112.354 Y146.188 E2.31450
G1 X111.497 Y145.653 E2.31525
G1 X110.910 Y145.257 E2.31578
G1 X110.091 Y144.661 E2.31653
G1 X109.532 Y144.225 E2.31705
G1 X108.755 Y143.573 E2.31781
G1 X108.227 Y143.097 E2.31833
G1 X107.372 Y142.270 E2.31922
G1 X106.333 Y141.136 E2.32036
G1 X105.872 Y140.587 E2.32089
G1 X105.248 Y139.788 E2.32164
G1 X104.831 Y139.215 E2.32217
G1 X104.263 Y138.373 E2.32292
G1 X103.888 Y137.773 E2.32345
G1 X103.385 Y136.901 E2.32420
G1 X103.049 Y136.269 E2.32473
G1 X102.603 Y135.355 E2.32548
G1 X102.316 Y134.710 E2.32601
G1 X101.937 Y133.771 E2.32676
G1 X101.694 Y133.105 E2.32728
G1 X101.381 Y132.142 E2.32804
G1 X101.185 Y131.459 E2.32856
G1 X100.942 Y130.483 E2.32931
G1 X100.793 Y129.784 E2.32984
G1 X100.617 Y128.786 E2.33059
G1 X100.520 Y128.095 E2.33111
G1 X100.413 Y127.075 E2.33187
G1 X100.363 Y126.370 E2.33240
G1 X100.327 Y125.347 E2.33316
G1 X100.327 Y124.654 E2.33367
G1 X100.363 Y123.630 E2.33443
