; generated by Slic3r 1.2.9 on 2019-08-21 at 17:39:48

; external perimeters extrusion width = 0.50mm
; perimeters extrusion width = 0.85mm
; infill extrusion width = 1.02mm
; solid infill extrusion width = 0.85mm
; top infill extrusion width = 0.85mm

M107
M190 S60 ; set bed temperature
M104 S215 ; set temperature
G28 ; home all axes
G1 Z5 F5000 ; lift nozzle

M109 S215 ; wait for temperature to be reached
G21 ; set units to millimeters
G90 ; use absolute coordinates
M82 ; use absolute distances for extrusion
G92 E0
G1 Z0.100 F7800.000
G1 E-2.00000 F2400.00000
G92 E0
G1 X107.366 Y107.237 F7800.000
G1 E2.00000 F2400.00000
G1 X108.047 Y106.586 E2.00070 F1800.000
G1 X109.027 Y105.730 E2.00167
G1 X109.767 Y105.140 E2.00237
G1 X110.820 Y104.375 E2.00333
G1 X111.608 Y103.854 E2.00404
G1 X112.725 Y103.187 E2.00500
G1 X113.554 Y102.741 E2.00570
G1 X114.729 Y102.175 E2.00667
G1 X115.600 Y101.803 E2.00737
G1 X116.818 Y101.346 E2.00834
G1 X117.713 Y101.055 E2.00903
G1 X118.970 Y100.708 E2.01000
G1 X119.891 Y100.497 E2.01070
G1 X121.173 Y100.265 E2.01167
G1 X122.101 Y100.139 E2.01237
G1 X123.405 Y100.021 E2.01334
G1 X124.349 Y99.979 E2.01404
G1 X125.651 Y99.979 E2.01501
G1 X126.589 Y100.021 E2.01570
G1 X127.891 Y100.138 E2.01667 F1800.000
G1 X128.822 Y100.264 E2.01737
G1 X130.108 Y100.497 E2.01834
G1 X131.030 Y100.708 E2.01904
G1 X132.284 Y101.054 E2.02001
G1 X133.182 Y101.346 E2.02071
G1 X134.467 Y101.828 E2.02173
G1 X135.271 Y102.175 E2.02238
G1 X136.444 Y102.740 E2.02335
G1 X137.275 Y103.187 E2.02405
G1 X138.392 Y103.854 E2.02501
G1 X139.180 Y104.375 E2.02571
G1 X140.233 Y105.140 E2.02668
G1 X140.972 Y105.729 E2.02738
G1 X141.953 Y106.586 E2.02835
G1 X142.470 Y107.070 E2.02887
G1 X143.536 Y108.181 E2.03002
G1 X144.157 Y108.891 E2.03072
G1 X144.963 Y109.902 E2.03168
G1 X145.523 Y110.673 E2.03238
G1 X146.241 Y111.760 E2.03335
G1 X146.725 Y112.571 E2.03405
G1 X147.342 Y113.716 E2.03502
G1 X147.752 Y114.568 E2.03572
G1 X148.263 Y115.764 E2.03668
G1 X148.595 Y116.649 E2.03739
G1 X148.997 Y117.886 E2.03835
G1 X149.249 Y118.798 E2.03905
G1 X149.538 Y120.067 E2.04002
G1 X149.707 Y120.997 E2.04072
G1 X149.883 Y122.291 E2.04169
G1 X149.967 Y123.227 E2.04239
G1 X150.025 Y124.527 E2.04335
G1 X150.025 Y125.473 E2.04406
G1 X149.967 Y126.773 E2.04502
G1 X149.882 Y127.714 E2.04572
G1 X149.707 Y129.004 E2.04669
G1 X149.538 Y129.933 E2.04739
G1 X149.249 Y131.203 E2.04836
G1 X148.997 Y132.114 E2.04906
G1 X148.595 Y133.351 E2.05002
G1 X148.263 Y134.236 E2.05073
G1 X147.750 Y135.435 E2.05169
G1 X147.342 Y136.284 E2.05239
G1 X146.723 Y137.433 E2.05336
G1 X146.240 Y138.241 E2.05406
G1 X145.523 Y139.327 E2.05503
G1 X144.968 Y140.092 E2.05573
G1 X144.157 Y141.109 E2.05669
G1 X143.535 Y141.821 E2.05740
G1 X142.636 Y142.761 E2.05836
G1 X141.953 Y143.414 E2.05906
G1 X140.973 Y144.270 E2.06003
G1 X140.227 Y144.865 E2.06074
G1 X139.180 Y145.625 E2.06170
G1 X138.392 Y146.146 E2.06240
G1 X137.275 Y146.813 E2.06336
G1 X136.445 Y147.260 E2.06406
G1 X135.271 Y147.825 E2.06503
G1 X134.401 Y148.197 E2.06573
G1 X133.181 Y148.655 E2.06670
G1 X132.289 Y148.945 E2.06740
G1 X131.030 Y149.292 E2.06837
G1 X130.108 Y149.503 E2.06907
G1 X128.827 Y149.735 E2.07003
G1 X127.890 Y149.862 E2.07074
G1 X126.595 Y149.979 E2.07170
G1 X125.651 Y150.021 E2.07240
G1 X124.349 Y150.021 E2.07337
G1 X123.406 Y149.979 E2.07407
G1 X122.109 Y149.862 E2.07504
G1 X121.177 Y149.736 E2.07573
G1 X119.892 Y149.503 E2.07670
G1 X118.974 Y149.293 E2.07740
G1 X117.716 Y148.946 E2.07837
G1 X116.818 Y148.654 E2.07907
G1 X115.600 Y148.197 E2.08004
G1 X114.731 Y147.826 E2.08074
G1 X113.557 Y147.261 E2.08171
G1 X112.727 Y146.814 E2.08241
G1 X111.608 Y146.146 E2.08337
G1 X110.820 Y145.625 E2.08407
G1 X109.767 Y144.860 E2.08504
G1 X109.027 Y144.270 E2.08574
G1 X108.047 Y143.414 E2.08671
G1 X107.365 Y142.761 E2.08741
G1 X106.464 Y141.820 E2.08838
G1 X105.843 Y141.109 E2.08908
G1 X105.030 Y140.089 E2.09005
G1 X104.477 Y139.327 E2.09074
G1 X103.760 Y138.241 E2.09171
G1 X103.275 Y137.430 E2.09241
G1 X102.658 Y136.283 E2.09338
G1 X102.266 Y135.473 E2.09405
G1 X101.737 Y134.236 E2.09505
G1 X101.405 Y133.351 E2.09575
G1 X101.002 Y132.111 E2.09671
G1 X100.751 Y131.202 E2.09742
G1 X100.461 Y129.933 E2.09838
G1 X100.293 Y129.003 E2.09908
G1 X100.118 Y127.711 E2.10005
G1 X100.033 Y126.773 E2.10075
G1 X99.975 Y125.466 E2.10172
G1 X99.975 Y124.527 E2.10242
G1 X100.034 Y123.219 E2.10339
G1 X100.118 Y122.286 E2.10408
G1 X100.293 Y120.996 E2.10505
G1 X100.461 Y120.067 E2.10575
G1 X100.751 Y118.798 E2.10672
G1 X101.003 Y117.886 E2.10742
G1 X101.405 Y116.649 E2.10839
G1 X101.737 Y115.764 E2.10909
G1 X102.249 Y114.567 E2.11005
G1 X102.658 Y113.716 E2.11075
G1 X103.275 Y112.571 E2.11172
G1 X103.760 Y111.759 E2.11242
G1 X104.477 Y110.673 E2.11339
G1 X105.032 Y109.908 E2.11409
G1 X105.843 Y108.891 E2.11506
G1 X106.465 Y108.179 E2.11576
G1 X107.314 Y107.292 E2.11667
G1 X107.495 Y107.361 F7800.000
G1 X108.164 Y106.721 E2.11736 F1800.000
G1 X109.145 Y105.864 E2.11832
G1 X109.872 Y105.284 E2.11901
G1 X110.925 Y104.519 E2.11998
G1 X111.700 Y104.008 E2.12067
G1 X112.817 Y103.340 E2.12163
G1 X113.632 Y102.901 E2.12232
G1 X114.807 Y102.336 E2.12329
G1 X115.662 Y101.970 E2.12398
G1 X116.880 Y101.513 E2.12495
G1 X117.760 Y101.227 E2.12563
G1 X119.018 Y100.880 E2.12660
G1 X119.923 Y100.673 E2.12729
G1 X121.204 Y100.441 E2.12826
G1 X122.117 Y100.317 E2.12894
G1 X123.421 Y100.199 E2.12991
G1 X124.349 Y100.158 E2.13060
G1 X125.651 Y100.158 E2.13157
G1 X126.573 Y100.199 E2.13225
G1 X127.875 Y100.316 E2.13322 F1800.000
G1 X128.790 Y100.440 E2.13391
G1 X130.076 Y100.673 E2.13488
G1 X130.982 Y100.880 E2.13557
G1 X132.237 Y101.226 E2.13654
G1 X133.120 Y101.513 E2.13722
G1 X134.403 Y101.995 E2.13824
G1 X135.193 Y102.336 E2.13888
G1 X136.367 Y102.901 E2.13985
G1 X137.183 Y103.340 E2.14054
G1 X138.300 Y104.008 E2.14150
G1 X139.075 Y104.519 E2.14219
G1 X140.128 Y105.284 E2.14316
G1 X140.855 Y105.864 E2.14385
G1 X141.835 Y106.720 E2.14481
G1 X142.344 Y107.196 E2.14533
G1 X143.407 Y108.304 E2.14647
G1 X144.017 Y109.002 E2.14716
G1 X144.823 Y110.014 E2.14812
G1 X145.374 Y110.771 E2.14881
G1 X146.092 Y111.858 E2.14978
G1 X146.568 Y112.655 E2.15047
G1 X147.185 Y113.801 E2.15144
G1 X147.588 Y114.638 E2.15213
G1 X148.099 Y115.834 E2.15309
G1 X148.425 Y116.704 E2.15378
G1 X148.828 Y117.942 E2.15475
G1 X149.075 Y118.838 E2.15544
G1 X149.364 Y120.106 E2.15640
G1 X149.530 Y121.021 E2.15709
G1 X149.706 Y122.315 E2.15806
G1 X149.788 Y123.235 E2.15875
G1 X149.847 Y124.535 E2.15971
G1 X149.847 Y125.465 E2.16040
G1 X149.788 Y126.765 E2.16137
G1 X149.705 Y127.690 E2.16206
G1 X149.530 Y128.980 E2.16302
G1 X149.364 Y129.894 E2.16371
G1 X149.075 Y131.163 E2.16468
G1 X148.828 Y132.058 E2.16537
G1 X148.425 Y133.296 E2.16634
G1 X148.099 Y134.166 E2.16703
G1 X147.586 Y135.365 E2.16799
G1 X147.185 Y136.199 E2.16868
G1 X146.566 Y137.348 E2.16965
G1 X146.091 Y138.143 E2.17034
G1 X145.374 Y139.229 E2.17130
G1 X144.828 Y139.980 E2.17199
G1 X144.017 Y140.998 E2.17296
G1 X143.406 Y141.697 E2.17365
G1 X142.506 Y142.638 E2.17461
G1 X141.836 Y143.279 E2.17530
G1 X140.855 Y144.136 E2.17627
G1 X140.122 Y144.721 E2.17697
G1 X139.075 Y145.481 E2.17793
G1 X138.300 Y145.992 E2.17861
G1 X137.183 Y146.660 E2.17958
G1 X136.368 Y147.099 E2.18027
G1 X135.193 Y147.664 E2.18124
G1 X134.338 Y148.030 E2.18193
G1 X133.118 Y148.488 E2.18289
G1 X132.242 Y148.773 E2.18358
G1 X130.982 Y149.120 E2.18455
G1 X130.076 Y149.327 E2.18524
G1 X128.795 Y149.560 E2.18620
G1 X127.874 Y149.684 E2.18689
G1 X126.579 Y149.801 E2.18786
G1 X125.651 Y149.842 E2.18855
G1 X124.349 Y149.842 E2.18951
G1 X123.422 Y149.801 E2.19020
G1 X122.125 Y149.684 E2.19117
G1 X121.209 Y149.560 E2.19186
G1 X119.924 Y149.327 E2.19283
G1 X119.021 Y149.121 E2.19351
G1 X117.763 Y148.774 E2.19448
G1 X116.881 Y148.487 E2.19517
G1 X115.662 Y148.030 E2.19614
G1 X114.808 Y147.665 E2.19683
G1 X113.635 Y147.100 E2.19779
G1 X112.819 Y146.661 E2.19848
G1 X111.700 Y145.992 E2.19945
G1 X110.925 Y145.481 E2.20014
G1 X109.872 Y144.716 E2.20110
G1 X109.145 Y144.136 E2.20179
G1 X108.165 Y143.280 E2.20276
G1 X107.494 Y142.638 E2.20345
G1 X106.593 Y141.696 E2.20442
G1 X105.983 Y140.998 E2.20510
G1 X105.169 Y139.977 E2.20607
G1 X104.626 Y139.229 E2.20676
G1 X103.909 Y138.143 E2.20773
G1 X103.432 Y137.345 E2.20842
G1 X102.815 Y136.199 E2.20938
G1 X102.430 Y135.402 E2.21004
G1 X101.901 Y134.166 E2.21104
G1 X101.575 Y133.296 E2.21173
G1 X101.172 Y132.056 E2.21269
G1 X100.925 Y131.162 E2.21338
G1 X100.636 Y129.894 E2.21435
G1 X100.470 Y128.979 E2.21504
G1 X100.295 Y127.687 E2.21601
G1 X100.212 Y126.765 E2.21669
G1 X100.153 Y125.459 E2.21766
G1 X100.153 Y124.535 E2.21835
G1 X100.212 Y123.227 E2.21932
G1 X100.295 Y122.310 E2.22000
G1 X100.470 Y121.020 E2.22097
G1 X100.636 Y120.106 E2.22166
G1 X100.925 Y118.838 E2.22263
G1 X101.172 Y117.942 E2.22332
G1 X101.575 Y116.704 E2.22428
G1 X101.901 Y115.834 E2.22497
G1 X102.413 Y114.637 E2.22594
G1 X102.815 Y113.801 E2.22663
G1 X103.432 Y112.655 E2.22759
G1 X103.909 Y111.857 E2.22828
G1 X104.626 Y110.771 E2.22925
G1 X105.172 Y110.020 E2.22994
G1 X105.983 Y109.002 E2.23090
G1 X106.594 Y108.303 E2.23159
G1 X107.443 Y107.415 E2.23251
G1 X107.624 Y107.484 F7800.000
G1 X108.282 Y106.855 E2.23318 F1800.000
G1 X109.262 Y105.999 E2.23415
G1 X109.977 Y105.429 E2.23483
G1 X111.029 Y104.664 E2.23579
G1 X111.791 Y104.161 E2.23647
G1 X112.908 Y103.494 E2.23744
G1 X113.710 Y103.062 E2.23811
G1 X114.884 Y102.496 E2.23908
G1 X115.725 Y102.137 E2.23976
G1 X116.943 Y101.680 E2.24072
G1 X117.808 Y101.399 E2.24140
G1 X119.065 Y101.052 E2.24237
G1 X119.955 Y100.849 E2.24304
G1 X121.236 Y100.616 E2.24401
G1 X122.133 Y100.494 E2.24468
G1 X123.437 Y100.377 E2.24565
G1 X124.349 Y100.336 E2.24633
G1 X125.651 Y100.336 E2.24730
G1 X126.557 Y100.377 E2.24797
G1 X127.859 Y100.494 E2.24894 F1800.000
G1 X128.758 Y100.615 E2.24962
G1 X130.044 Y100.849 E2.25058
G1 X130.935 Y101.052 E2.25126
G1 X132.189 Y101.398 E2.25223
G1 X133.057 Y101.680 E2.25291
G1 X134.339 Y102.162 E2.25392
G1 X135.116 Y102.496 E2.25455
G1 X136.289 Y103.062 E2.25552
G1 X137.092 Y103.494 E2.25619
G1 X138.208 Y104.161 E2.25716
G1 X138.971 Y104.664 E2.25784
G1 X140.023 Y105.429 E2.25880
G1 X140.737 Y105.998 E2.25948
G1 X141.718 Y106.855 E2.26045
G1 X142.218 Y107.322 E2.26096
G1 X143.278 Y108.427 E2.26209
G1 X143.877 Y109.114 E2.26277
G1 X144.684 Y110.125 E2.26373
G1 X145.225 Y110.870 E2.26441
G1 X145.943 Y111.956 E2.26538
G1 X146.411 Y112.740 E2.26606
G1 X147.027 Y113.886 E2.26702
G1 X147.423 Y114.708 E2.26770
G1 X147.935 Y115.904 E2.26867
G1 X148.256 Y116.759 E2.26934
G1 X148.658 Y117.997 E2.27031
G1 X148.901 Y118.878 E2.27099
G1 X149.190 Y120.146 E2.27195
G1 X149.353 Y121.045 E2.27263
G1 X149.529 Y122.339 E2.27360
G1 X149.610 Y123.243 E2.27427
G1 X149.668 Y124.543 E2.27524
G1 X149.668 Y125.457 E2.27592
G1 X149.610 Y126.757 E2.27688
G1 X149.528 Y127.666 E2.27756
G1 X149.353 Y128.956 E2.27853
G1 X149.190 Y129.854 E2.27921
G1 X148.901 Y131.123 E2.28017
G1 X148.658 Y132.003 E2.28085
G1 X148.256 Y133.241 E2.28182
G1 X147.935 Y134.096 E2.28249
G1 X147.422 Y135.295 E2.28346
G1 X147.027 Y136.114 E2.28414
G1 X146.409 Y137.263 E2.28511
G1 X145.942 Y138.045 E2.28578
G1 X145.225 Y139.130 E2.28675
G1 X144.689 Y139.869 E2.28742
G1 X143.877 Y140.886 E2.28839
G1 X143.277 Y141.574 E2.28907
G1 X142.377 Y142.514 E2.29003
G1 X141.718 Y143.145 E2.29071
G1 X140.738 Y144.001 E2.29168
G1 X140.017 Y144.576 E2.29236
G1 X138.971 Y145.336 E2.29332
G1 X138.208 Y145.839 E2.29400
G1 X137.092 Y146.506 E2.29497
G1 X136.290 Y146.938 E2.29564
G1 X135.116 Y147.504 E2.29661
G1 X134.275 Y147.863 E2.29729
G1 X133.055 Y148.321 E2.29825
G1 X132.194 Y148.601 E2.29893
G1 X130.935 Y148.948 E2.29990
G1 X130.044 Y149.151 E2.30057
G1 X128.763 Y149.384 E2.30154
G1 X127.858 Y149.506 E2.30222
G1 X126.563 Y149.623 E2.30318
G1 X125.651 Y149.664 E2.30386
G1 X124.349 Y149.664 E2.30483
G1 X123.438 Y149.623 E2.30550
G1 X122.141 Y149.506 E2.30647
G1 X121.241 Y149.385 E2.30715
G1 X119.956 Y149.151 E2.30811
G1 X119.069 Y148.949 E2.30879
G1 X117.811 Y148.602 E2.30976
G1 X116.944 Y148.320 E2.31044
G1 X115.725 Y147.863 E2.31140
G1 X114.886 Y147.504 E2.31208
G1 X113.712 Y146.939 E2.31305
G1 X112.911 Y146.508 E2.31372
G1 X111.792 Y145.839 E2.31469
G1 X111.030 Y145.336 E2.31537
G1 X109.977 Y144.571 E2.31633
G1 X109.262 Y144.001 E2.31701
G1 X108.282 Y143.145 E2.31798
G1 X107.623 Y142.515 E2.31866
G1 X106.722 Y141.573 E2.31962
G1 X106.123 Y140.886 E2.32030
G1 X105.309 Y139.866 E2.32127
G1 X104.775 Y139.130 E2.32194
G1 X104.058 Y138.045 E2.32291
G1 X103.589 Y137.261 E2.32359
G1 X102.973 Y136.114 E2.32455
G1 X102.594 Y135.331 E2.32520
G1 X102.065 Y134.096 E2.32620
G1 X101.744 Y133.241 E2.32687
G1 X101.341 Y132.001 E2.32784
G1 X101.099 Y131.122 E2.32852
G1 X100.810 Y129.854 E2.32948
G1 X100.647 Y128.955 E2.33016
G1 X100.472 Y127.663 E2.33113
G1 X100.390 Y126.757 E2.33180
G1 X100.331 Y125.451 E2.33278
G1 X100.332 Y124.543 E2.33345
G1 X100.391 Y123.235 E2.33442
G1 X100.472 Y122.334 E2.33509
G1 X100.647 Y121.044 E2.33606
G1 X100.810 Y120.146 E2.33674
G1 X101.099 Y118.878 E2.33770
G1 X101.342 Y117.997 E2.33838
G1 X101.744 Y116.759 E2.33935
G1 X102.065 Y115.904 E2.34002
G1 X102.577 Y114.707 E2.34099
G1 X102.973 Y113.886 E2.34167
G1 X103.589 Y112.740 E2.34263
G1 X104.058 Y111.955 E2.34331
G1 X104.775 Y110.869 E2.34428
G1 X105.311 Y110.131 E2.34495
G1 X106.123 Y109.114 E2.34592
G1 X106.723 Y108.426 E2.34660
G1 X107.572 Y107.538 E2.34751
G1 E0.34751 F2400.00000
G92 E0
G1 X128.735 Y127.457 F7800.000
G1 E2.00000 F2400.00000
G1 X121.265 Y127.457 E2.00554 F1800.000
G1 X120.984 Y126.934 E2.00599
G1 X120.827 Y126.566 E2.00628
G1 X120.703 Y126.186 E2.00658
G1 X120.614 Y125.796 E2.00688
G1 X120.560 Y125.400 E2.00717
G1 X120.542 Y125.000 E2.00747
G1 X120.560 Y124.600 E2.00777
G1 X120.614 Y124.204 E2.00806
G1 X120.703 Y123.814 E2.00836
G1 X120.827 Y123.434 E2.00866
G1 X120.984 Y123.066 E2.00895
G1 X121.173 Y122.714 E2.00925
G1 X121.394 Y122.380 E2.00955
G1 X121.643 Y122.067 E2.00984
G1 X121.920 Y121.778 E2.01014
G1 X122.221 Y121.515 E2.01044
G1 X122.544 Y121.280 E2.01074
G1 X122.888 Y121.075 E2.01103
G1 X123.248 Y120.901 E2.01133
G1 X123.623 Y120.761 E2.01163
G1 X124.008 Y120.654 E2.01192
G1 X124.402 Y120.583 E2.01222
G1 X124.800 Y120.547 E2.01252
G1 X125.200 Y120.547 E2.01281
G1 X125.598 Y120.583 E2.01311
G1 X125.992 Y120.654 E2.01341
G1 X126.377 Y120.761 E2.01370
G1 X126.752 Y120.901 E2.01400
G1 X127.112 Y121.075 E2.01430
G1 X127.456 Y121.280 E2.01460
G1 X127.779 Y121.515 E2.01489
G1 X128.080 Y121.778 E2.01519
G1 X128.357 Y122.067 E2.01549
G1 X128.606 Y122.380 E2.01578
G1 X128.827 Y122.714 E2.01608
G1 X129.016 Y123.066 E2.01638
G1 X129.173 Y123.434 E2.01667
G1 X129.297 Y123.814 E2.01697
G1 X129.386 Y124.204 E2.01727
G1 X129.440 Y124.600 E2.01756
G1 X129.458 Y125.000 E2.01786
G1 X129.440 Y125.400 E2.01816
G1 X129.386 Y125.796 E2.01845
G1 X129.297 Y126.186 E2.01875
G1 X129.173 Y126.566 E2.01905
G1 X129.016 Y126.934 E2.01935
G1 X128.770 Y127.391 E2.01973
G1 X128.628 Y127.279 F7800.000
G1 X121.372 Y127.279 E2.02512 F1800.000
G1 X121.145 Y126.856 E2.02547
G1 X120.994 Y126.503 E2.02576
G1 X120.875 Y126.138 E2.02604
G1 X120.790 Y125.764 E2.02633
G1 X120.738 Y125.384 E2.02661
G1 X120.721 Y125.000 E2.02690
G1 X120.738 Y124.616 E2.02718
G1 X120.790 Y124.236 E2.02747
G1 X120.875 Y123.862 E2.02775
G1 X120.994 Y123.497 E2.02804
G1 X121.145 Y123.143 E2.02832
G1 X121.327 Y122.805 E2.02861
G1 X121.538 Y122.485 E2.02889
G1 X121.778 Y122.185 E2.02918
G1 X122.043 Y121.907 E2.02946
G1 X122.332 Y121.655 E2.02975
G1 X122.643 Y121.429 E2.03003
G1 X122.972 Y121.232 E2.03032
G1 X123.318 Y121.066 E2.03060
G1 X123.678 Y120.931 E2.03089
G1 X124.048 Y120.828 E2.03117
G1 X124.426 Y120.760 E2.03146
G1 X124.808 Y120.725 E2.03174
G1 X125.192 Y120.725 E2.03203
G1 X125.574 Y120.760 E2.03231
G1 X125.952 Y120.828 E2.03260
G1 X126.322 Y120.931 E2.03288
G1 X126.682 Y121.066 E2.03317
G1 X127.028 Y121.232 E2.03345
G1 X127.357 Y121.429 E2.03374
G1 X127.668 Y121.655 E2.03402
G1 X127.957 Y121.907 E2.03431
G1 X128.222 Y122.185 E2.03459
G1 X128.462 Y122.485 E2.03488
